app/dist/common/images/kronos-worldwide.svg

<svg height="18" width="18" xmlns="http://www.w3.org/2000/svg"><path d="m0 0h18v18h-18z" fill="#033b82"/><path d="m6 5v8h1.556v-3.138l3.21 3.138h2.234l-3.946-4.091 3.66-3.909h-2.084l-3.074 3.308v-3.308z" fill="#fff"/></svg>

<!-- by TradingView --><svg width="18" height="18" xmlns="http://www.w3.org/2000/svg"><path fill="#033B82" d="M0 0h18v18H0z"/><path d="M6 5v8h1.556V9.862L10.766 13H13L9.054 8.909 12.714 5H10.63L7.556 8.308V5H6z" fill="#fff"/></svg>
